public/svgs/solid/paragraph.svg

<svg xmlns="http://www.w3.org/2000/svg" viewBox="0 0 448 512"><!-- Font Awesome Pro 6.0.0-alpha2 by @fontawesome - https://fontawesome.com License - https://fontawesome.com/license (Commercial License) --><path d="M447.999 63.998V64C447.999 81.674 433.673 96 416.001 96H383.999V448C383.999 465.674 369.673 480 352.001 480H351.997C334.325 480 319.999 465.674 319.999 448V96H287.999V448C287.999 465.674 273.673 480 256.001 480H255.997C238.325 480 223.999 465.674 223.999 448V352H198.859C115.288 352 40.669 290.893 32.749 207.699C23.661 112.266 98.445 32 191.999 32H416.001C433.673 32 447.999 46.326 447.999 63.998Z"/></svg>

<svg xmlns="http://www.w3.org/2000/svg" viewBox="0 0 448 512"><!--! Font Awesome Pro 6.5.1 by @fontawesome - https://fontawesome.com License - https://fontawesome.com/license (Commercial License) Copyright 2023 Fonticons, Inc. --><path d="M192 32h64H416c17.7 0 32 14.3 32 32s-14.3 32-32 32H384l0 352c0 17.7-14.3 32-32 32s-32-14.3-32-32l0-352H288V448c0 17.7-14.3 32-32 32s-32-14.3-32-32V352H192c-88.4 0-160-71.6-160-160s71.6-160 160-160z"/></svg>
